X:752
T:Norwave
C:Oud en Nieuwe Hollantse Boerenlieties en Contradansen: Amsterdam, 1700
L:1/4
M:2/2
R:Reel
S:Colin Hume's website,  colinhume.com  - chords can also be printed below the stave.
Q:1/2=112
%%MIDI ratio 3 1
K:D
P:A
|: d/e/ | "D"ff ed | "A"c>d eA | "D"ff ed | "A7"ec "D"dd/e/ |\
"Bm"ff ed | "A"c>d eA | "G"B/c/d "A7"d>c | "D"d3 :|
P:B
|: B/c/ | "G"dd dc/B/ | "D"AA A2 | "Em"BB BA/G/ | "Bm"FF F>E |\
"D"DD/E/ "Bm"FF/G/ | "A"AA/B/ cA | "G"B/c/d "A7"d>c | "D"d3 :|

